X:1
T:Shout Aloud, All Ye Lands
T:Shout Aloud, All Ye Lands
T:Robert Lowry
T:Fanny Crosby, 1875
T:Public Domain Courtesy of the Cyber Hymnal™
T:Public Domain Courtesy of the Cyber Hymnal™
C:Robert Lowry
Z:Public Domain
Z:Courtesy of the Cyber Hymnal™
%%score ( 1 2 ) ( 3 4 )
L:1/8
Q:1/4=110
M:3/4
K:Bb
V:1 treble 
V:2 treble 
V:3 bass 
V:4 bass 
V:1
 [DF]2 | [DB]3 [DB] [DB]2 | ([GB][FA]) [EG]2 [DF]2 | [EG]2 [EF]2 [EA]2 | [DB]4 [FB]2 | %5
w: 1.~A-|cross the blue|wa- * ters the|mes- sage of|grace O’er|
w: 2.~All|crea- tures a-|dor- * ing shall|bow at His|word, All|
w: 3.~How|gent- ly and|kind- * ly there|comes from a-|bove His|
w: 4.~The|day is ap-|proach- * ing, the|time draw- eth|nigh, When|
 [Fc]3 [Fc] [Fc]2 | ([Ec][DB]) [FA]2 F2 | [FB]2 [Fc]2 [Fd]2 | [Fc]4 [Fc]2 | [Fe]3 [Fd] [Fc]2 | %10
w: king- dom and|em- * pire is|fly- ing a-|pace; The|day- beam is|
w: tongues shall con-|fess * Him their|Sav- ior and|Lord; His|truth and its|
w: scep- ter of|mer- * cy, His|stand- ard of|love! He|rul- eth in|
w: na- tion to|na- * tion “Ho-|san- na” shall|cry; The|i- dols they|
 [Fd]2 [DB]2 [FB]2 | [GB]2 [FA]2 [EG]2 | [DF]4 [DF]2 | [EG]2 [FA]2 [FB]2 | [Fe]2 [Fd]2 [Gc]2 | %15
w: break- ing, ma-|jes- tic and|bright, And|mil- lions are|turn- ing from|
w: glo- ry ex-|tend- ed shall|be, And|co- ver the|earth as the|
w: wis- dom, the|mon- arch of|peace; His|reign shall be|glor- ious and|
w: wor- ship in|dust shall be|laid, And|Je- sus be|hon- ored, ex-|
 [FB]3 [Fc] [FA]2 | [FB]4 ||"^Refrain" [FB]>[Fc] | [Fd]4 [FB]>[Fc] | [Fd]4 [Fd]>[Fd] | %20
w: dark- ness to|light.||||
w: wa- ters the|sea.|Shout a-|loud, all ye|lands, and be|
w: ne- ver shall|cease.||||
w: alt- ed, o-|beyed.||||
 (ed) [Fc]2 F2 | [Fc]4 [Fc]>[Fd] | [Fe]4 [Fc]>[Fd] | [Fe]4 [Fe]>[Fe] | (fe) [Fd]2 [Fc]2 | %25
w: |||||
w: glad * while ye|sing; Shout a-|loud, all ye|lands, for the|Sav- * ior is|
w: |||||
w: |||||
 [Fd]4 [Fd][Fd] | [^Fd]3 [Fd] [Fd]2 | [Gd]4 [Gd][Gd] | [_Ad]2 [Ad]2 [Ad]2 | [Ge]4 [Ff][Fe] | %30
w: |||||
w: king! And the|sound that went|forth on the|night of His|birth Shall be|
w: |||||
w: |||||
 [Fd]2 [Fc]2 [FB]2 | [Ec]2 [GB]2 [EG]2 | [DF]2 [Fd]3 [Ec] | [DB]4 |] %34
w: ||||
w: heard to the|ut- ter- most|bounds of the|earth.|
w: ||||
w: ||||
V:2
 x2 | x6 | x6 | x6 | x6 | x6 | x4 F2 | x6 | x6 | x6 | x6 | x6 | x6 | x6 | x6 | x6 | x4 || x2 | x6 | %19
 x6 | F2 x F2 x | x6 | x6 | x6 | F2 x4 | x6 | x6 | x6 | x6 | x6 | x6 | x6 | x6 | x4 |] %34
V:3
 [B,,B,]2 | [B,,F,]3 [B,,F,] [B,,F,]2 | [B,,B,]2 [B,,B,]2 [B,,B,]2 | [E,B,]2 [F,A,]2 [F,C]2 | %4
 [B,,B,]4 [D,B,]2 | [F,A,]3 [F,A,] [F,A,]2 | (A,B,) [F,C]2 A,2 | [D,B,]2 [C,A,]2 [B,,B,]2 | %8
 [F,A,]4 [F,A,]2 | [F,C]3 [F,B,] [F,A,]2 | B,2 [B,,F,]2 [D,B,]2 | [E,B,]2 [E,B,]2 [E,B,]2 | %12
 [B,,B,]4 [B,,B,]2 | [E,B,]2 [C,E]2 [B,,D]2 | [C,C]2 [D,=B,]2 [E,C]2 | [F,D]3 [F,E] [F,C]2 | %16
 [B,,D]4 || [D,B,]>[F,A,] | B,4 [D,B,]>[F,A,] | B,4 B,>B, | (CB,) [F,A,]2 [F,A,]2 | %21
 [F,A,]4 [F,A,]>[F,B,] | [F,C]4 [F,A,]>[F,B,] | [F,C]4 [F,C]>[F,C] | (DC) [F,B,]2 [F,A,]2 | %25
 B,4 B,B, | [A,C]3 [A,C] [A,C]2 | [G,B,]4 [G,B,][G,B,] | [F,B,]2 [F,B,]2 [F,B,]2 | %29
 [E,B,]4 [D,B,][C,A,] | [B,,B,]2 [C,A,]2 [D,B,]2 | [E,G,]2 [E,B,]2 [E,B,]2 | %32
 [F,B,]2 [F,B,]3 [F,A,] | [B,,B,]4 |] %34
V:4
 x2 | x6 | x6 | x6 | x6 | x6 | F,2 x (F, E,) x | x6 | x6 | x6 | B,2 x4 | x6 | x6 | x6 | x6 | x6 | %16
 x4 || x2 | B,4 x2 | B,4 B,>B, | F,2 x4 | x6 | x6 | x6 | F,2 x4 | B,4 B,B, | x6 | x6 | x6 | x6 | %30
 x6 | x6 | x6 | x4 |] %34

